X:1
T:Title
%%score ( 1 2 ) ( 3 4 )
L:1/8
Q:1/4=90
M:4/4
K:Eb
V:1 treble nm="Strings 1, Treble"
V:2 treble 
V:3 bass nm="Strings 1, Bass"
V:4 bass 
V:1
 z4 z2 EF | [EG]2 [EG]2 E2 [Ec]2 | [EB]2 BA [EG]2 BB | e2 B2 G2 E2 | [DB]6 B,-[B,G] | %5
w: 1.~Go~ *|forth~ and~ tell~ the~|whole~ wide~ * world,~ With~ a~|pur pose~ true~ and~|brave,~ The~ *|
 [GB]2 [Ge]2 [Bd]2 [Ac]2 | [GB]2 [Ge]2 [GB]2 [Ac]2 | [GB]2 [FA]2 [EG]2 [DF]2 | [B,E]6 EG | %9
w: truth,~ and~ noth ing~|but~ the~ truth,~ And~|Je sus'~ pow'r~ to~|save.~ * *|
 [GB]4- [GB][Ge][Bd][Ac] | [GB]2 [EG]4 [GB]2 | [Ad]4- [Ad][Ac][GB][FA] | [EG]2 [GB]4 [GB]2 | %13
w: ||||
 [Ge]4- [Ge][Ge][Bd]B | [Bd]2 [Ac]4 [Ac]2 | [GB]3 [FA] [EG]2 [DF]2 | [B,E]6 z2 |] %17
w: ||||
V:2
 z4 z2 B,2 | x8 | z2 E2 z4 | x8 | z4 z2 .E2 | x8 | x8 | x8 | x8 | x8 | x8 | x8 | x8 | x8 | x8 | %15
 x8 | x8 |] %17
V:3
 z4 z2 G,A, | [E,B,]2 [E,B,]2 [E,G,]2 [E,A,]2 | [E,G,]2 G,C [E,B,]2 B,B, | E2 B,2 G,2 E,2 | %4
 [B,,F,]6 G,B, | [E,B,]2 [B,,B,]2 [C,B,]2 [D,B,]2 | [E,E]2 [E,B,]2 [E,E]2 [A,E]2 | %7
 [B,E]2 B,2 [B,,B,]2 [B,,A,]2 | [E,G,]6 z2 | z2 [E,B,]2 [E,B,][B,,B,][C,B,][D,B,] | %10
 [E,E]2 [E,B,]4 z2 | z2 [B,,B,]2 [B,,B,][B,,B,][C,B,][D,B,] | [E,B,]2 [E,E]4 z2 | %13
 z2 [E,B,]2 [E,B,][E,B,][F,B,][G,E] | [A,E]2 [A,E]4 [A,E]2 | [B,E]3 B, [B,,B,]2 [B,,A,]2 | %16
 [E,G,]6 z2 |] %17
V:4
 z4 z2 E,2 | x8 | z2 E,2 z4 | x8 | z4 z2 E,2 | x8 | x8 | x8 | x8 | x8 | x8 | x8 | x8 | x8 | x8 | %15
 x8 | x8 |] %17

